Suru++-Ubuntu/actions/symbolic/map-symbolic.svg

<!-- Created with Inkscape (http://www.inkscape.org/) -->
<svg width="16" height="16" version="1.1" xmlns="http://www.w3.org/2000/svg">
 <g transform="translate(-31.97559,-220.36218)">
  <path d="m40.00684 220.86218c-4.136213 0-7.5 3.36379-7.5 7.5s3.363787 7.5 7.5 7.5 7.5-3.36379 7.5-7.5-3.363787-7.5-7.5-7.5zm0 1c3.595773 0 6.5 2.90423 6.5 6.5s-2.904227 6.5-6.5 6.5-6.5-2.90423-6.5-6.5 2.904227-6.5 6.5-6.5z" style="fill:#bebebe"/>
  <path transform="translate(31.97559,220.36218)" d="m15.03125 1-9 5 1.28125 1.28125c0.1809644-0.1809644 0.4426076-0.28125 0.71875-0.28125 0.5522847 0 1 0.4477153 1 1 0 0.2672084-0.1417563 0.5081113-0.3125 0.6875-0.0057088 0.0059978 0.0058547 0.0253953 0 0.03125l1.3125 1.28125 5-9z" style="fill:#bebebe"/>
  <path transform="translate(31.97559,220.36218)" d="m6.03125 6-5 9 9-5-1.3125-1.28125c-0.1809644 0.1809644-0.4113576 0.28125-0.6875 0.28125-0.5522847 0-1-0.4477153-1-1 0-0.2761424 0.1002856-0.5377856 0.28125-0.71875l-1.28125-1.28125z" style="fill:#bebebe;opacity:.5"/>
 </g>
</svg>

<?xml version="1.0" encoding="UTF-8" standalone="no"?>
<!-- Created with Inkscape (http://www.inkscape.org/) -->

<svg
   xmlns:dc="http://purl.org/dc/elements/1.1/"
   xmlns:cc="http://creativecommons.org/ns#"
   xmlns:rdf="http://www.w3.org/1999/02/22-rdf-syntax-ns#"
   xmlns:svg="http://www.w3.org/2000/svg"
   xmlns="http://www.w3.org/2000/svg"
   xmlns:sodipodi="http://sodipodi.sourceforge.net/DTD/sodipodi-0.dtd"
   xmlns:inkscape="http://www.inkscape.org/namespaces/inkscape"
   width="16"
   height="16"
   id="svg2"
   version="1.1"
   inkscape:version="0.48.4 r9939"
   sodipodi:docname="map-symbolic.svg">
  <defs
     id="defs4">
    <marker
       inkscape:stockid="DiamondS"
       orient="auto"
       refY="0.0"
       refX="0.0"
       id="DiamondS"
       style="overflow:visible">
      <path
         id="path8477"
         d="M 0,-7.0710768 L -7.0710894,0 L 0,7.0710589 L 7.0710462,0 L 0,-7.0710768 z "
         style="fill-rule:evenodd;stroke:#000000;stroke-width:1.0pt"
         transform="scale(0.2)" />
    </marker>
    <marker
       inkscape:stockid="Arrow2Send"
       orient="auto"
       refY="0.0"
       refX="0.0"
       id="Arrow2Send"
       style="overflow:visible;">
      <path
         id="path8425"
         style="fill-rule:evenodd;stroke-width:0.62500000;stroke-linejoin:round;"
         d="M 8.7185878,4.0337352 L -2.2072895,0.016013256 L 8.7185884,-4.0017078 C 6.9730900,-1.6296469 6.9831476,1.6157441 8.7185878,4.0337352 z "
         transform="scale(0.3) rotate(180) translate(-2.3,0)" />
    </marker>
    <marker
       inkscape:stockid="Arrow1Lend"
       orient="auto"
       refY="0.0"
       refX="0.0"
       id="Arrow1Lend"
       style="overflow:visible;">
      <path
         id="path8395"
         d="M 0.0,0.0 L 5.0,-5.0 L -12.5,0.0 L 5.0,5.0 L 0.0,0.0 z "
         style="fill-rule:evenodd;stroke:#000000;stroke-width:1.0pt;"
         transform="scale(0.8) rotate(180) translate(12.5,0)" />
    </marker>
    <linearGradient
       id="linearGradient3946">
      <stop
         id="stop3948"
         offset="0"
         style="stop-color:#000000;stop-opacity:0.74698794;" />
      <stop
         id="stop3950"
         offset="1"
         style="stop-color:#000000;stop-opacity:0.02409638;" />
    </linearGradient>
    <linearGradient
       id="linearGradient3830-9">
      <stop
         style="stop-color:#000000;stop-opacity:0.74698794;"
         offset="0"
         id="stop3832-7" />
      <stop
         style="stop-color:#000000;stop-opacity:0.02409638;"
         offset="1"
         id="stop3834-5" />
    </linearGradient>
    <linearGradient
       id="linearGradient3984">
      <stop
         style="stop-color:#f4deba;stop-opacity:1;"
         offset="0"
         id="stop3986" />
      <stop
         style="stop-color:#de9625;stop-opacity:0;"
         offset="1"
         id="stop3988" />
    </linearGradient>
  </defs>
  <sodipodi:namedview
     id="base"
     pagecolor="#555753"
     bordercolor="#666666"
     borderopacity="1.0"
     inkscape:pageopacity="1"
     inkscape:pageshadow="2"
     inkscape:zoom="22.627417"
     inkscape:cx="-3.0408836"
     inkscape:cy="10.163154"
     inkscape:document-units="px"
     inkscape:current-layer="layer1"
     showgrid="true"
     inkscape:snap-grids="true"
     inkscape:window-width="1920"
     inkscape:window-height="1134"
     inkscape:window-x="0"
     inkscape:window-y="27"
     inkscape:window-maximized="1"
     showborder="true"
     fit-margin-top="0"
     fit-margin-right="0"
     fit-margin-left="0"
     fit-margin-bottom="0"
     showguides="true"
     inkscape:guide-bbox="true">
    <inkscape:grid
       type="xygrid"
       id="grid7044"
       empspacing="8"
       visible="true"
       enabled="true"
       snapvisiblegridlinesonly="true"
       originx="-31.97559px"
       originy="-816.00002px" />
  </sodipodi:namedview>
  <metadata
     id="metadata7">
    <rdf:RDF>
      <cc:Work
         rdf:about="">
        <dc:format>image/svg+xml</dc:format>
        <dc:type
           rdf:resource="http://purl.org/dc/dcmitype/StillImage" />
        <dc:title></dc:title>
      </cc:Work>
    </rdf:RDF>
  </metadata>
  <g
     inkscape:label="Livello 1"
     inkscape:groupmode="layer"
     id="layer1"
     transform="translate(-31.97559,-220.36218)">
    <path
       style="font-size:medium;font-style:normal;font-variant:normal;font-weight:normal;font-stretch:normal;text-indent:0;text-align:start;text-decoration:none;line-height:normal;letter-spacing:normal;word-spacing:normal;text-transform:none;direction:ltr;block-progression:tb;writing-mode:lr-tb;text-anchor:start;baseline-shift:baseline;color:#000000;fill:#bebebe;fill-opacity:1;stroke:none;stroke-width:1;marker:none;visibility:visible;display:inline;overflow:visible;enable-background:accumulate;font-family:Sans;-inkscape-font-specification:Sans"
       d="m 40.00684,220.86218 c -4.136213,0 -7.5,3.36379 -7.5,7.5 0,4.13621 3.363787,7.5 7.5,7.5 4.136213,0 7.5,-3.36379 7.5,-7.5 0,-4.13621 -3.363787,-7.5 -7.5,-7.5 z m 0,1 c 3.595773,0 6.5,2.90423 6.5,6.5 0,3.59577 -2.904227,6.5 -6.5,6.5 -3.595773,0 -6.5,-2.90423 -6.5,-6.5 0,-3.59577 2.904227,-6.5 6.5,-6.5 z"
       id="path3905"
       inkscape:connector-curvature="0" />
    <path
       style="fill:#bebebe;fill-opacity:1;stroke:none"
       d="M 15.03125 1 L 6.03125 6 L 7.3125 7.28125 C 7.4934644 7.1002856 7.7551076 7 8.03125 7 C 8.5835347 7 9.03125 7.4477153 9.03125 8 C 9.03125 8.2672084 8.8894937 8.5081113 8.71875 8.6875 C 8.7130412 8.6934978 8.7246047 8.7128953 8.71875 8.71875 L 10.03125 10 L 15.03125 1 z "
       transform="translate(31.97559,220.36218)"
       id="path3895" />
    <path
       style="opacity:0.5;fill:#bebebe;fill-opacity:1;stroke:none"
       d="M 6.03125 6 L 1.03125 15 L 10.03125 10 L 8.71875 8.71875 C 8.5377856 8.8997144 8.3073924 9 8.03125 9 C 7.4789653 9 7.03125 8.5522847 7.03125 8 C 7.03125 7.7238576 7.1315356 7.4622144 7.3125 7.28125 L 6.03125 6 z "
       transform="translate(31.97559,220.36218)"
       id="path3897" />
  </g>
</svg>
